icons/24px/rocketLaunch.svg

<svg width="24" height="24" viewBox="0 0 24 24" fill="none" xmlns="http://www.w3.org/2000/svg">
<path fill-rule="evenodd" clip-rule="evenodd" d="M5.97079 18.5102C6.51033 18.331 6.74505 18.093 6.84982 17.9406C6.9618 17.7777 7.00375 17.5988 6.99423 17.4286C6.99098 17.3706 6.95738 17.2618 6.85545 17.1577C6.75942 17.0596 6.6493 17.0132 6.54776 17.0066C6.32438 16.9921 6.17299 17.043 6.05122 17.1303C5.92287 17.2222 5.68641 17.4579 5.49011 18.0449C5.41689 18.2638 5.35426 18.4845 5.30073 18.7017C5.52219 18.6477 5.74745 18.5844 5.97079 18.5102ZM8.99559 17.3167C9.06075 18.4813 8.41098 19.8118 6.60271 20.4125C5.31092 20.8416 4.01908 20.9642 3.38667 20.9992C3.16561 21.0114 2.98828 20.8341 3.00061 20.6131C3.03577 19.9823 3.1588 18.6957 3.58912 17.4091C4.19184 15.607 5.40845 14.9241 6.67744 15.0063C7.94644 15.0886 8.93043 16.152 8.99559 17.3167Z" fill="black"/>
<path fill-rule="evenodd" clip-rule="evenodd" d="M11 6.99976H7.79241C7.28338 6.99976 6.79352 7.19385 6.42262 7.54248L3.13422 10.6334C2.92696 10.8283 2.98355 11.1711 3.24243 11.2889L7 12.9998L11 16.9998L12.7418 20.757C12.8612 21.0146 13.2035 21.0693 13.3972 20.8617L16.4624 17.576C16.8079 17.2057 17 16.7181 17 16.2117V12.9998C18.7081 11.2916 20.4163 8.70819 20.8784 5.00025C20.9458 4.45997 20.9863 4.11361 21.0017 3.40081C21.0064 3.17812 20.8251 2.99603 20.6024 3.00007C19.8863 3.01304 19.5402 3.05394 18.9995 3.12133C15.2916 3.58351 12.7081 5.29163 11 6.99976ZM11.4446 14.6009L9.47001 12.6013C9.88633 11.7321 10.7062 10.1252 12.4144 8.41691L12.4129 8.41533L12.4142 8.41398C13.7982 7.03003 15.8579 5.63264 18.8356 5.16417C18.3672 8.14134 16.9702 10.2009 15.5865 11.5848L15.5858 11.5841C13.8762 13.2937 12.3137 14.185 11.4446 14.6009ZM12.7443 16.0255L13.5435 17.8077L15 16.1713L14.9813 14.5759C14.2178 15.2137 13.3708 15.666 12.7443 16.0255ZM7.97034 11.2266C8.33008 10.5999 8.65702 9.79073 9.29505 9.02706L7.82843 8.99976L6.13977 10.4699L7.97034 11.2266Z" fill="black"/>
</svg>

<?xml version="1.0" encoding="UTF-8"?>
<svg id="Layer_1" data-name="Layer 1" xmlns="http://www.w3.org/2000/svg" viewBox="0 0 24 24">
  <defs>
    <style>
      .cls-1 {
        fill-rule: evenodd;
        stroke-width: 0px;
      }
    </style>
  </defs>
  <path class="cls-1" d="m5.9708,18.5102c.5395-.1792.7743-.4172.879-.5696.112-.1629.1539-.3418.1444-.512-.0032-.058-.0368-.1668-.1388-.2709-.096-.0981-.2062-.1445-.3077-.1511-.2234-.0145-.3748.0364-.4965.1237-.1283.0919-.3648.3276-.5611.9146-.0732.2189-.1358.4396-.1894.6568.2215-.054.4467-.1173.6701-.1915Zm3.0248-1.1935c.0652,1.1646-.5846,2.4951-2.3929,3.0958-1.2918.4291-2.5836.5517-3.216.5867-.2211.0122-.3984-.1651-.3861-.3861.0352-.6308.1582-1.9174.5885-3.204.6027-1.8021,1.8193-2.485,3.0883-2.4028,1.269.0823,2.253,1.1457,2.3182,2.3104Zm2.0044-10.3169h-3.2076c-.509,0-.9989.1941-1.3698.5427l-3.2884,3.0909c-.2073.1949-.1507.5377.1082.6555l3.7576,1.7109,4,4,1.7418,3.7572c.1194.2576.4617.3123.6554.1047l3.0652-3.2857c.3455-.3703.5376-.8579.5376-1.3643v-3.2119c1.7081-1.7082,3.4163-4.2916,3.8784-7.9995.0674-.5403.1079-.8866.1233-1.5994.0047-.2227-.1766-.4048-.3993-.4007-.7161.013-1.0622.0539-1.6029.1213-3.7079.4622-6.2914,2.1703-7.9995,3.8784Zm.4446,7.6011l-1.9746-1.9996c.4163-.8692,1.2362-2.4761,2.9444-4.1844l-.0015-.0016.0013-.0014c1.384-1.3839,3.4437-2.7813,6.4214-3.2498-.4684,2.9772-1.8654,5.0367-3.2491,6.4206l-.0007-.0007c-1.7096,1.7096-3.2721,2.6009-4.1412,3.0168Zm1.2997,1.4246l.7992,1.7822,1.4565-1.6364-.0187-1.5954c-.7635.6378-1.6105,1.0901-2.237,1.4496Zm-4.774-4.7989c.3597-.6267.6867-1.4359,1.3247-2.1995l-1.4666-.0273-1.6887,1.4701,1.8306.7567Z"/>
</svg>
